Costumes/bananas.svg

<?xml version="1.0" encoding="UTF-8" standalone="no"?>
<svg
   version="1.1"
   width="77.078827"
   height="75.449371"
   id="svg12"
   sodipodi:docname="bananas.svg"
   xmlns:inkscape="http://www.inkscape.org/namespaces/inkscape"
   xmlns:sodipodi="http://sodipodi.sourceforge.net/DTD/sodipodi-0.dtd"
   xmlns="http://www.w3.org/2000/svg"
   xmlns:svg="http://www.w3.org/2000/svg">
  <defs
     id="defs16" />
  <sodipodi:namedview
     id="namedview14"
     pagecolor="#ffffff"
     bordercolor="#000000"
     borderopacity="0.25"
     inkscape:showpageshadow="2"
     inkscape:pageopacity="0.0"
     inkscape:pagecheckerboard="0"
     inkscape:deskcolor="#d1d1d1" />
  <!-- Exported by Scratch - http://scratch.mit.edu/ -->
  <g
     id="ID0.990735765080899"
     transform="matrix(0.85737497,0,0,0.85737497,-28.293167,-27.435726)">
    <path
       id="ID0.23450724128633738"
       fill="#272525"
       d="M 89.759,50.926 C 89.88,49.249 90.655,42.161 91.797,37.35 L 98.1,34.632 c 3.443,3.451 4.823,11.396 -1.123,18.311 2.373,0.851 5.324,5.119 4.25,9.874 -2.054,9.073 -4.826,16.899 -0.664,26.445 3.32,7.613 13.019,11.494 18.854,18.012 7.131,7.968 2.312,11.166 -5.446,11.312 C 94.575,118.954 80.682,109.799 74.416,97.601 66.727,82.631 70.514,53.374 89.759,50.926 Z" />
    <path
       id="ID0.006342989392578602"
       fill="#fff63b"
       d="m 95.482,36.354 c 1.965,1.2 4.287,3.964 4.102,6.328 -0.537,0.635 -5.428,10.81 -3.723,11.684 4.324,2.219 -2.092,18.945 0.308,29.581 3.333,14.759 16.099,18.109 21.185,26.486 2.781,4.58 -2.283,5.797 -3.813,5.771 C 90.29,115.85 80.895,103.24 77.097,95.433 72.108,85.185 75.171,72.65 79.451,62.717 c 0.852,-1.976 3.168,-5.742 4.841,-7.194 2.591,-2.249 3.24,-2.431 6.619,-2.684 0.555,-0.041 4.571,-16.485 4.571,-16.485 z" />
    <path
       id="ID0.5267163878306746"
       fill="#272525"
       d="m 91.46,56.445 c 0.224,-0.717 1.224,-0.426 1.048,0.156 -6.083,20.292 -3.511,39.352 10.381,49.449 2.946,2.144 8.654,4.604 10.02,5.058 1.366,0.454 0.265,1.338 -0.963,0.899 -1.229,-0.438 -2.215,-0.79 -3.969,-1.589 C 92.886,103.561 80.29,92.516 91.46,56.445 Z" />
    <path
       id="ID0.8533078269101679"
       fill="#272525"
       d="m 87.33,47.466 c 1.074,-2.319 7.955,-15.742 10.089,-15.462 5.881,0.772 8.829,14.746 -4.619,19.839 l -0.78,-0.615 c 2.529,-0.22 5.162,6.124 1.84,11.17 -5.166,7.853 -10.565,14.297 -10.061,24.633 0.403,8.24 8.131,15.066 11.288,23.104 3.858,9.823 -1.812,11.249 -9.153,8.846 C 67.577,112.967 57.788,99.811 56.253,86.296 54.371,69.708 68.372,43.459 87.33,47.466 Z" />
    <path
       id="ID0.19106093607842922"
       fill="#fff63b"
       d="m 97.911,35.649 c 2.231,0.965 3.812,3.191 1.594,7.29 -1.385,2.562 -8.96,8.375 -7.67,9.757 3.272,3.503 -8.728,17.119 -10.267,27.902 -2.137,14.961 8.662,22.293 10.451,31.832 0.979,5.215 -4.213,4.697 -5.645,4.174 C 64.653,108.649 60.327,93.721 59.542,85.139 58.512,73.873 65.863,63.098 73.431,55.168 c 1.505,-1.577 5.025,-4.357 7.116,-5.173 3.239,-1.264 3.134,-3.295 6.399,-2.426 0.54,0.143 10.965,-11.92 10.965,-11.92 z" />
    <path
       id="ID0.6718006273731589"
       fill="#272525"
       d="m 86.958,53.21 c 0.465,-0.601 1.301,0 0.931,0.49 -12.958,17.074 -17.346,35.827 -7.896,49.87 2.005,2.979 6.489,7.162 7.608,8.035 1.121,0.873 -0.574,2.178 -1.572,1.362 -0.997,-0.813 -2.459,-1.913 -3.822,-3.237 C 70.474,98.339 63.588,83.443 86.958,53.21 Z" />
    <path
       id="ID0.33484075916931033"
       fill="#272525"
       d="m 82.886,42.351 c 2.085,-1.563 14.735,-10.32 16.481,-9.113 4.814,3.327 0.135,17.397 -14.235,15.845 l 0.052,-1.3 c 2.342,0.943 1.558,7.729 -3.848,10.691 -8.409,4.61 -15.052,8.597 -19.668,17.951 -3.681,7.458 -1.485,16.233 -2.634,24.752 -1.405,10.409 -9.72,7.925 -15.024,2.499 C 30.747,90.108 31.158,75.277 36.425,62.654 42.888,47.161 68.11,30.283 82.886,42.351 Z" />
    <path
       id="ID0.7287357193417847"
       fill="#fff63b"
       d="m 98.018,36.676 c 0.455,2.188 -0.205,5.707 -2.164,7.156 -1.806,1.336 -7.887,3.826 -11.418,4.093 1.173,4.565 -16.226,12.259 -22.868,21.085 -9.216,12.249 -3.274,23.582 -6.366,32.811 -1.69,5.045 -6.021,2.252 -7.028,1.146 C 32.891,86.172 36.385,71.043 39.896,63.113 44.505,52.702 56.274,46.497 66.841,42.898 c 2.102,-0.716 6.572,-1.586 8.818,-1.366 3.478,0.34 4.053,0.68 6.511,2.917 0.407,0.37 15.464,-9.616 15.848,-7.773 z" />
    <path
       id="ID0.7101516453549266"
       fill="#272525"
       d="m 79.744,47.256 c 0.705,-0.322 1.146,0.585 0.581,0.85 -19.806,9.246 -32.867,23.831 -31.402,40.48 0.311,3.531 2.221,9.245 2.783,10.52 0.562,1.275 -0.86,1.084 -1.343,-0.084 C 49.881,97.854 49.496,96.918 48.94,95.132 44.162,79.796 44.297,63.437 79.744,47.256 Z" />
  </g>
</svg>

<svg version="1.1" width="123" height="120" xmlns="http://www.w3.org/2000/svg" xmlns:xlink="http://www.w3.org/1999/xlink">
  <!-- Exported by Scratch - http://scratch.mit.edu/ -->
  <g id="ID0.990735765080899" transform="matrix(0.8573749661445618, 0, 0, 0.8573749661445618, -27.65, -27.05)">
    <path id="ID0.23450724128633738" fill="#272525" d="M 89.759 50.926 C 89.880 49.249 90.655 42.161 91.797 37.350 L 98.100 34.632 C 101.543 38.083 102.923 46.028 96.977 52.943 C 99.350 53.794 102.301 58.062 101.227 62.817 C 99.173 71.890 96.401 79.716 100.563 89.262 C 103.883 96.875 113.582 100.756 119.417 107.274 C 126.548 115.242 121.729 118.440 113.971 118.586 C 94.575 118.954 80.682 109.799 74.416 97.601 C 66.727 82.631 70.514 53.374 89.759 50.926 L 89.759 50.926 Z "/>
    <path id="ID0.006342989392578602" fill="#FFF63B" d="M 95.482 36.354 C 97.447 37.554 99.769 40.318 99.584 42.682 C 99.047 43.317 94.156 53.492 95.861 54.366 C 100.185 56.585 93.769 73.311 96.169 83.947 C 99.502 98.706 112.268 102.056 117.354 110.433 C 120.135 115.013 115.071 116.230 113.541 116.204 C 90.290 115.850 80.895 103.240 77.097 95.433 C 72.108 85.185 75.171 72.650 79.451 62.717 C 80.303 60.741 82.619 56.975 84.292 55.523 C 86.883 53.274 87.532 53.092 90.911 52.839 C 91.466 52.798 95.482 36.354 95.482 36.354 L 95.482 36.354 Z "/>
    <path id="ID0.5267163878306746" fill="#272525" d="M 91.460 56.445 C 91.684 55.728 92.684 56.019 92.508 56.601 C 86.425 76.893 88.997 95.953 102.889 106.050 C 105.835 108.194 111.543 110.654 112.909 111.108 C 114.275 111.562 113.174 112.446 111.946 112.007 C 110.717 111.569 109.731 111.217 107.977 110.418 C 92.886 103.561 80.290 92.516 91.460 56.445 L 91.460 56.445 Z "/>
    <path id="ID0.8533078269101679" fill="#272525" d="M 87.330 47.466 C 88.404 45.147 95.285 31.724 97.419 32.004 C 103.300 32.776 106.248 46.750 92.800 51.843 L 92.020 51.228 C 94.549 51.008 97.182 57.352 93.860 62.398 C 88.694 70.251 83.295 76.695 83.799 87.031 C 84.202 95.271 91.930 102.097 95.087 110.135 C 98.945 119.958 93.275 121.384 85.934 118.981 C 67.577 112.967 57.788 99.811 56.253 86.296 C 54.371 69.708 68.372 43.459 87.330 47.466 L 87.330 47.466 Z "/>
    <path id="ID0.19106093607842922" fill="#FFF63B" d="M 97.911 35.649 C 100.142 36.614 101.723 38.840 99.505 42.939 C 98.120 45.501 90.545 51.314 91.835 52.696 C 95.107 56.199 83.107 69.815 81.568 80.598 C 79.431 95.559 90.230 102.891 92.019 112.430 C 92.998 117.645 87.806 117.127 86.374 116.604 C 64.653 108.649 60.327 93.721 59.542 85.139 C 58.512 73.873 65.863 63.098 73.431 55.168 C 74.936 53.591 78.456 50.811 80.547 49.995 C 83.786 48.731 83.681 46.700 86.946 47.569 C 87.486 47.712 97.911 35.649 97.911 35.649 L 97.911 35.649 Z "/>
    <path id="ID0.6718006273731589" fill="#272525" d="M 86.958 53.210 C 87.423 52.609 88.259 53.210 87.889 53.700 C 74.931 70.774 70.543 89.527 79.993 103.570 C 81.998 106.549 86.482 110.732 87.601 111.605 C 88.722 112.478 87.027 113.783 86.029 112.967 C 85.032 112.154 83.570 111.054 82.207 109.730 C 70.474 98.339 63.588 83.443 86.958 53.210 L 86.958 53.210 Z "/>
    <path id="ID0.33484075916931033" fill="#272525" d="M 82.886 42.351 C 84.971 40.788 97.621 32.031 99.367 33.238 C 104.181 36.565 99.502 50.635 85.132 49.083 L 85.184 47.783 C 87.526 48.726 86.742 55.512 81.336 58.474 C 72.927 63.084 66.284 67.071 61.668 76.425 C 57.987 83.883 60.183 92.658 59.034 101.177 C 57.629 111.586 49.314 109.102 44.010 103.676 C 30.747 90.108 31.158 75.277 36.425 62.654 C 42.888 47.161 68.110 30.283 82.886 42.351 L 82.886 42.351 Z "/>
    <path id="ID0.7287357193417847" fill="#FFF63B" d="M 98.018 36.676 C 98.473 38.864 97.813 42.383 95.854 43.832 C 94.048 45.168 87.967 47.658 84.436 47.925 C 85.609 52.490 68.210 60.184 61.568 69.010 C 52.352 81.259 58.294 92.592 55.202 101.821 C 53.512 106.866 49.181 104.073 48.174 102.967 C 32.891 86.172 36.385 71.043 39.896 63.113 C 44.505 52.702 56.274 46.497 66.841 42.898 C 68.943 42.182 73.413 41.312 75.659 41.532 C 79.137 41.872 79.712 42.212 82.170 44.449 C 82.577 44.819 97.634 34.833 98.018 36.676 L 98.018 36.676 Z "/>
    <path id="ID0.7101516453549266" fill="#272525" d="M 79.744 47.256 C 80.449 46.934 80.890 47.841 80.325 48.106 C 60.519 57.352 47.458 71.937 48.923 88.586 C 49.234 92.117 51.144 97.831 51.706 99.106 C 52.268 100.381 50.846 100.190 50.363 99.022 C 49.881 97.854 49.496 96.918 48.940 95.132 C 44.162 79.796 44.297 63.437 79.744 47.256 L 79.744 47.256 Z "/>
  </g>
</svg>
